src/pos-icons/lambda.svg

<svg height="24" viewBox="0 0 24 24" width="24" xmlns="http://www.w3.org/2000/svg"><path d="m6 20 4.16-12.09-.82-1.91h-1.34v-2h2c.42 0 .78.26.93.63l5.73 13.37h1.34v2h-2c-.43 0-.79-.27-.93-.64l-3.74-8.71-3.21 9.35z"/></svg>

<?xml version="1.0" encoding="UTF-8"?><!DOCTYPE svg PUBLIC "-//W3C//DTD SVG 1.1//EN" "http://www.w3.org/Graphics/SVG/1.1/DTD/svg11.dtd"><svg xmlns="http://www.w3.org/2000/svg" xmlns:xlink="http://www.w3.org/1999/xlink" version="1.1" id="mdi-lambda" width="24" height="24" viewBox="0 0 24 24"><path d="M6,20L10.16,7.91L9.34,6H8V4H10C10.42,4 10.78,4.26 10.93,4.63L16.66,18H18V20H16C15.57,20 15.21,19.73 15.07,19.36L11.33,10.65L8.12,20H6Z" /></svg>
